images/hydro.svg

<svg height="250" viewBox="0 0 250 250" width="250" xmlns="http://www.w3.org/2000/svg"><g fill="#383838"><path d="m114.257812.535156c-38.132812 3.273438-72.507812 23.878906-93.894531 56.347656-4.445312 6.789063-10.15625 18.164063-12.941406 25.878907-7.3242188 20.265625-9.179687 43.359375-5.222656 64.84375 6.25 33.789062 25.632812 62.890625 54.6875 82.03125 6.785156 4.445312 18.164062 10.15625 25.878906 12.941406 20.261719 7.324219 43.359375 9.179687 64.84375 5.222656 33.789063-6.25 62.890625-25.632812 82.03125-54.6875 4.441406-6.785156 10.15625-18.164062 12.9375-25.878906 7.324219-20.261719 9.179687-43.359375 5.226563-64.84375-6.25-33.789063-25.636719-62.890625-54.6875-82.03125-6.542969-4.296875-17.96875-10.058594-25.390626-12.792969-16.308593-6.003906-35.742187-8.542968-53.46875-7.03125zm20.019532 37.355469c6.691406 3.515625 15.089844 12.644531 25.539062 27.832031 18.164063 26.316406 27.539063 45.117188 31.152344 62.207032 1.5625 7.324218 1.511719 18.699218 0 25.632812-2.929688 12.941406-9.082031 24.023438-18.800781 33.742188-13.425781 13.378906-29.296875 19.824218-47.117188 19.089843-17.285156-.683593-31.738281-7.078125-44.289062-19.578125-9.910157-9.960937-16.160157-21.386718-19.089844-34.960937-.683594-3.222657-.878906-6.25-.878906-13.429688.046875-8.398437.195312-9.8125 1.414062-15.085937 1.855469-7.960938 3.664063-12.988282 7.667969-21.242188 4.101562-8.445312 6.6875-12.839844 14.011719-23.730468 8.984375-13.328126 19.582031-27.246094 25.734375-33.789063 3.367187-3.613281 8.789062-7.324219 12.449218-8.496094.683594-.242187 2.882813-.339843 4.882813-.292969 3.175781.148438 4.152344.441407 7.324219 2.101563zm0 0"/><path d="m119.042969 71.238281c-11.328125 11.671875-21.777344 26.125-27.734375 38.378907-5.710938 11.71875-7.957032 20.214843-8.007813 30.03125 0 10.9375 2.734375 18.308593 9.472657 25.488281 9.277343 9.910156 19.582031 14.257812 33.9375 14.207031 8.105468-.046875 14.109374-1.367188 20.507812-4.492188 9.617188-4.785156 17.625-14.355468 20.359375-24.316406 1.320313-4.929687 1.417969-15.625.195313-21.140625-4.148438-18.898437-16.796876-39.84375-35.644532-58.984375-3.613281-3.664062-5.222656-4.980468-6.152344-4.980468-.925781 0-2.585937 1.414062-6.933593 5.808593zm0 0"/></g></svg>

<svg xmlns="http://www.w3.org/2000/svg" xmlns:xlink="http://www.w3.org/1999/xlink" width="250px" height="250px" viewBox="0 0 250 250" version="1.1">
<g id="surface1">
<path style=" stroke:none;fill-rule:nonzero;fill:rgb(21.960784%,21.960784%,21.960784%);fill-opacity:1;" d="M 114.257812 0.535156 C 76.125 3.808594 41.75 24.414062 20.363281 56.882812 C 15.917969 63.671875 10.207031 75.046875 7.421875 82.761719 C 0.0976562 103.027344 -1.757812 126.121094 2.199219 147.605469 C 8.449219 181.394531 27.832031 210.496094 56.886719 229.636719 C 63.671875 234.082031 75.050781 239.792969 82.765625 242.578125 C 103.027344 249.902344 126.125 251.757812 147.609375 247.800781 C 181.398438 241.550781 210.5 222.167969 229.640625 193.113281 C 234.082031 186.328125 239.796875 174.949219 242.578125 167.234375 C 249.902344 146.972656 251.757812 123.875 247.804688 102.390625 C 241.554688 68.601562 222.167969 39.5 193.117188 20.359375 C 186.574219 16.0625 175.148438 10.300781 167.726562 7.566406 C 151.417969 1.5625 131.984375 -0.976562 114.257812 0.535156 Z M 134.277344 37.890625 C 140.96875 41.40625 149.367188 50.535156 159.816406 65.722656 C 177.980469 92.039062 187.355469 110.839844 190.96875 127.929688 C 192.53125 135.253906 192.480469 146.628906 190.96875 153.5625 C 188.039062 166.503906 181.886719 177.585938 172.167969 187.304688 C 158.742188 200.683594 142.871094 207.128906 125.050781 206.394531 C 107.765625 205.710938 93.3125 199.316406 80.761719 186.816406 C 70.851562 176.855469 64.601562 165.429688 61.671875 151.855469 C 60.988281 148.632812 60.792969 145.605469 60.792969 138.425781 C 60.839844 130.027344 60.988281 128.613281 62.207031 123.339844 C 64.0625 115.378906 65.871094 110.351562 69.875 102.097656 C 73.976562 93.652344 76.5625 89.257812 83.886719 78.367188 C 92.871094 65.039062 103.46875 51.121094 109.621094 44.578125 C 112.988281 40.964844 118.410156 37.253906 122.070312 36.082031 C 122.753906 35.839844 124.953125 35.742188 126.953125 35.789062 C 130.128906 35.9375 131.105469 36.230469 134.277344 37.890625 Z M 134.277344 37.890625 "/>
<path style=" stroke:none;fill-rule:nonzero;fill:rgb(21.960784%,21.960784%,21.960784%);fill-opacity:1;" d="M 119.042969 71.238281 C 107.714844 82.910156 97.265625 97.363281 91.308594 109.617188 C 85.597656 121.335938 83.351562 129.832031 83.300781 139.648438 C 83.300781 150.585938 86.035156 157.957031 92.773438 165.136719 C 102.050781 175.046875 112.355469 179.394531 126.710938 179.34375 C 134.816406 179.296875 140.820312 177.976562 147.21875 174.851562 C 156.835938 170.066406 164.84375 160.496094 167.578125 150.535156 C 168.898438 145.605469 168.996094 134.910156 167.773438 129.394531 C 163.625 110.496094 150.976562 89.550781 132.128906 70.410156 C 128.515625 66.746094 126.90625 65.429688 125.976562 65.429688 C 125.050781 65.429688 123.390625 66.84375 119.042969 71.238281 Z M 119.042969 71.238281 "/>
</g>
</svg>
